X: 600
T: Emerald Isle., The
T: inis ealga.
R:air
N:"Slow."
B:O'Neill's 600
Z:"Transcribed by John Walsh (walsh@math.ubc.ca)
M:3/4
L:1/8
K:F
Hc2|c2 F2 G2|A4 c>c|c2 f2d2|d2c2 z c|
c2 B2 A2|B2 A2 (cd)|F2 {A}G3 F|(F2E2) c2|
c2 {c}BA GF| f4 ff|ef gf dB|d2c2 z c|
cf A3c|cd F3 F|A2 A3G|F4||
A2|">"de d3 A|">"fg f3 A|">"B2 ">"A2 ">"G2|F{A}G F3F|
G2 G2 G2|A4 A>A|B2 A2 G2|(F2{GF}E2) AB|
c>d c3 (A/F/)|f4 z f|(gf) (ed) (cB)|d2 c3 c/c/|
c2 (BA) (GF)|B2A2 G2|F2 G2 A2|HB4 c>d|
cf A3c|cd F3D|C2 A2 G2|F4||


